assets/svg/ficon/object-group.svg

<?xml version="1.0" encoding="utf-8"?>
<svg width="2048" height="1792" viewBox="0 0 2048 1792" xmlns="http://www.w3.org/2000/svg"><path d="M2048 384h-128v1024h128v384h-384v-128h-1280v128h-384v-384h128v-1024h-128v-384h384v128h1280v-128h384v384zm-256-256v128h128v-128h-128zm-1664 0v128h128v-128h-128zm128 1536v-128h-128v128h128zm1408-128v-128h128v-1024h-128v-128h-1280v128h-128v1024h128v128h1280zm256 128v-128h-128v128h128zm-640-1024h384v768h-896v-256h-384v-768h896v256zm-768 384h640v-512h-640v512zm1024 256v-512h-256v384h-384v128h640z" fill="#60be86"/></svg>

<svg width="2048" height="1792" xmlns="http://www.w3.org/2000/svg"><path d="M2048 384h-128v1024h128v384h-384v-128H384v128H0v-384h128V384H0V0h384v128h1280V0h384v384zm-256-256v128h128V128h-128zm-1664 0v128h128V128H128zm128 1536v-128H128v128h128zm1408-128v-128h128V384h-128V256H384v128H256v1024h128v128h1280zm256 128v-128h-128v128h128zM1280 640h384v768H768v-256H384V384h896v256zm-768 384h640V512H512v512zm1024 256V768h-256v384H896v128h640z" fill="#60be86"/></svg>
